img/feature-shipping.svg

<svg width="136" height="136" viewBox="0 0 136 136" fill="none" xmlns="http://www.w3.org/2000/svg">
<g filter="url(#filter0_d)">
<circle cx="67" cy="67" r="48" fill="white"/>
</g>
<path d="M79.7626 71.7268C76.2873 71.7268 73.46 74.5541 73.46 78.0293C73.46 81.5046 76.2873 84.3319 79.7626 84.3319C83.2384 84.3319 86.0651 81.5046 86.0651 78.0293C86.0651 74.5541 83.2379 71.7268 79.7626 71.7268ZM79.7626 81.1806C78.0247 81.1806 76.6113 79.7672 76.6113 78.0293C76.6113 76.2915 78.0247 74.8781 79.7626 74.8781C81.5004 74.8781 82.9138 76.2915 82.9138 78.0293C82.9138 79.7673 81.5004 81.1806 79.7626 81.1806Z" fill="#083C6E"/>
<path d="M58.229 71.7268C54.7537 71.7268 51.9265 74.5541 51.9265 78.0293C51.9265 81.5046 54.7537 84.3319 58.229 84.3319C61.7043 84.3319 64.5315 81.5046 64.5315 78.0293C64.5315 74.5541 61.7043 71.7268 58.229 71.7268ZM58.229 81.1806C56.4911 81.1806 55.0777 79.7672 55.0777 78.0293C55.0777 76.2915 56.4911 74.8781 58.229 74.8781C59.9664 74.8781 61.3803 76.2915 61.3803 78.0293C61.3803 79.7673 59.9669 81.1806 58.229 81.1806Z" fill="#083C6E"/>
<path d="M84.0069 53.687C83.739 53.155 83.1944 52.8193 82.5988 52.8193H74.3004V55.9706H81.6271L85.9175 64.5042L88.7337 63.0882L84.0069 53.687Z" fill="#083C6E"/>
<path d="M75.0357 76.5063H63.1135V79.6576H75.0357V76.5063Z" fill="#083C6E"/>
<path d="M53.5021 76.5063H48.0399C47.1696 76.5063 46.4644 77.2117 46.4644 78.0819C46.4644 78.9522 47.1697 79.6575 48.0399 79.6575H53.5021C54.3725 79.6575 55.0777 78.9521 55.0777 78.0819C55.0777 77.2116 54.3724 76.5063 53.5021 76.5063Z" fill="#083C6E"/>
<path d="M91.6691 66.8738L88.5699 62.8822C88.2722 62.4978 87.8126 62.2729 87.3257 62.2729H75.8761V51.2436C75.8761 50.3732 75.1707 49.668 74.3005 49.668H48.0399C47.1696 49.668 46.4644 50.3733 46.4644 51.2436C46.4644 52.1138 47.1697 52.8191 48.0399 52.8191H72.7248V63.8485C72.7248 64.7188 73.4302 65.4241 74.3004 65.4241H86.5541L88.8487 68.38V76.5061H84.4895C83.6191 76.5061 82.9139 77.2114 82.9139 78.0816C82.9139 78.952 83.6192 79.6572 84.4895 79.6572H90.4243C91.2946 79.6572 91.9999 78.9519 92 78.0816V67.8402C92 67.4904 91.8834 67.1501 91.6691 66.8738Z" fill="#083C6E"/>
<path d="M53.3971 68.5232H46.1491C45.2788 68.5232 44.5735 69.2286 44.5735 70.0988C44.5735 70.9691 45.2789 71.6744 46.1491 71.6744H53.397C54.2673 71.6744 54.9726 70.969 54.9726 70.0988C54.9727 69.2286 54.2673 68.5232 53.3971 68.5232Z" fill="#083C6E"/>
<path d="M57.021 62.3257H43.5756C42.7054 62.3257 42 63.0311 42 63.9014C42 64.7717 42.7054 65.477 43.5756 65.477H57.021C57.8913 65.477 58.5966 64.7716 58.5966 63.9014C58.5966 63.0312 57.8913 62.3257 57.021 62.3257Z" fill="#083C6E"/>
<path d="M59.5945 56.1282H46.1491C45.2788 56.1282 44.5735 56.8335 44.5735 57.7038C44.5735 58.5741 45.2789 59.2793 46.1491 59.2793H59.5945C60.4649 59.2793 61.1701 58.574 61.1701 57.7038C61.1702 56.8335 60.4649 56.1282 59.5945 56.1282Z" fill="#083C6E"/>
<defs>
<filter id="filter0_d" x="0" y="0" width="136" height="136" filterUnits="userSpaceOnUse" color-interpolation-filters="sRGB">
<feFlood flood-opacity="0" result="BackgroundImageFix"/>
<feColorMatrix in="SourceAlpha" type="matrix" values="0 0 0 0 0 0 0 0 0 0 0 0 0 0 0 0 0 0 127 0"/>
<feOffset dx="1" dy="1"/>
<feGaussianBlur stdDeviation="10"/>
<feColorMatrix type="matrix" values="0 0 0 0 0 0 0 0 0 0 0 0 0 0 0 0 0 0 0.07 0"/>
<feBlend mode="normal" in2="BackgroundImageFix" result="effect1_dropShadow"/>
<feBlend mode="normal" in="SourceGraphic" in2="effect1_dropShadow" result="shape"/>
</filter>
</defs>
</svg>

<svg width="136" height="136" fill="none" xmlns="http://www.w3.org/2000/svg"><g filter="url(#prefix__a)"><circle cx="67" cy="67" r="48" fill="#fff"/></g><path d="M79.763 71.727a6.31 6.31 0 0 0-6.303 6.302 6.31 6.31 0 0 0 6.303 6.303 6.31 6.31 0 0 0 6.302-6.303 6.31 6.31 0 0 0-6.302-6.302zm0 9.454a3.155 3.155 0 0 1-3.152-3.152 3.155 3.155 0 0 1 3.152-3.15 3.154 3.154 0 0 1 3.15 3.15 3.154 3.154 0 0 1-3.15 3.152zM58.229 71.727a6.31 6.31 0 0 0-6.303 6.302 6.31 6.31 0 0 0 6.303 6.303 6.31 6.31 0 0 0 6.302-6.303 6.31 6.31 0 0 0-6.302-6.302zm0 9.454a3.155 3.155 0 0 1-3.151-3.152 3.155 3.155 0 0 1 3.151-3.15 3.155 3.155 0 0 1 3.151 3.15 3.154 3.154 0 0 1-3.151 3.152zM84.007 53.687a1.577 1.577 0 0 0-1.408-.868H74.3v3.152h7.327l4.29 8.533 2.817-1.416-4.727-9.401z" fill="#083C6E"/><path d="M75.036 76.506H63.114v3.152h11.922v-3.152zM53.502 76.506H48.04a1.575 1.575 0 1 0 0 3.151h5.462a1.575 1.575 0 1 0 0-3.15zM91.67 66.874l-3.1-3.992a1.574 1.574 0 0 0-1.244-.61h-11.45V51.245c0-.87-.705-1.576-1.576-1.576H48.04a1.575 1.575 0 1 0 0 3.151h24.685v11.03c0 .87.705 1.575 1.575 1.575h12.254l2.295 2.956v8.126h-4.36a1.575 1.575 0 1 0 0 3.151h5.935c.87 0 1.576-.705 1.576-1.575V67.84c0-.35-.117-.69-.33-.966zM53.397 68.523H46.15a1.576 1.576 0 1 0 0 3.151h7.248a1.576 1.576 0 1 0 0-3.15zM57.021 62.326H43.576a1.576 1.576 0 1 0 0 3.151H57.02a1.576 1.576 0 1 0 0-3.151z" fill="#083C6E"/><path d="M59.594 56.128H46.15a1.575 1.575 0 1 0 0 3.151h13.445a1.575 1.575 0 1 0 0-3.15z" fill="#083C6E"/><defs><filter id="prefix__a" x="0" y="0" width="136" height="136" filterUnits="userSpaceOnUse" color-interpolation-filters="sRGB"><feFlood flood-opacity="0" result="BackgroundImageFix"/><feColorMatrix in="SourceAlpha" values="0 0 0 0 0 0 0 0 0 0 0 0 0 0 0 0 0 0 127 0"/><feOffset dx="1" dy="1"/><feGaussianBlur stdDeviation="10"/><feColorMatrix values="0 0 0 0 0 0 0 0 0 0 0 0 0 0 0 0 0 0 0.07 0"/><feBlend in2="BackgroundImageFix" result="effect1_dropShadow"/><feBlend in="SourceGraphic" in2="effect1_dropShadow" result="shape"/></filter></defs></svg>
